X: 2353
M: C
L: 1/8
K: G
|:\
[1,3 edcB | ABcA GFED :|[2,4 ecAF | G2B2 G2z2 :|
|:\
[1,3 ecAG | ABcA GFED :|[2,4 ecAF | G2B2 G2z2 :|


